src/icons/media-text.svg

<svg xmlns="http://www.w3.org/2000/svg" width="512" height="512" viewBox="0 0 512 512">
    <path d="M96 89.5v320h320v-320H96zm175.5 244.3H145.2v-33.1h126.3v33.1zm94.2-66.2H145.2v-33.1h220.5v33.1zm0-65H145.2v-33.1h220.5v33.1z"/>
</svg>

<?xml version="1.0" encoding="UTF-8"?>
<svg width="512px" height="512px" viewBox="0 0 512 512" version="1.1" xmlns="http://www.w3.org/2000/svg" xmlns:xlink="http://www.w3.org/1999/xlink">
    <!-- Generator: Sketch 62 (91390) - https://sketch.com -->
    <title>media-text</title>
    <desc>Created with Sketch.</desc>
    <g id="media-text" stroke="none" stroke-width="1" fill="none" fill-rule="evenodd">
        <path d="M96,89.5 L96,409.5 L416,409.5 L416,89.5 L96,89.5 Z M271.5,333.8 L145.2,333.8 L145.2,300.7 L271.5,300.7 L271.5,333.8 Z M365.7,267.6 L145.2,267.6 L145.2,234.5 L365.7,234.5 L365.7,267.6 L365.7,267.6 Z M365.7,202.6 L145.2,202.6 L145.2,169.5 L365.7,169.5 L365.7,202.6 L365.7,202.6 Z" id="Shape" fill="#000000" fill-rule="nonzero"></path>
    </g>
</svg>
